media/img/android_logo.svg

<svg fill="none" height="25" viewBox="0 0 25 25" width="25" xmlns="http://www.w3.org/2000/svg"><path d="m18.2625 16.2064c-.575 0-1.05-.4925-1.05-1.1048s.475-1.0915 1.05-1.0915 1.05.4792 1.05 1.0915-.475 1.1048-1.05 1.1048zm-11.5 0c-.575 0-1.05-.4925-1.05-1.1048s.475-1.0915 1.05-1.0915 1.0375.4792 1.0375 1.0915-.4625 1.1048-1.0375 1.1048zm11.875-6.66874 2.0875-3.83352c.1125-.22629.0375-.50582-.1625-.62561-.2125-.13311-.475-.05325-.5625.17304l-2.1375 3.87346c-1.6823-.81964-3.5125-1.23761-5.3625-1.2246-1.9125 0-3.75.43926-5.3375 1.21129l-2.1125-3.87346c-.02652-.0539-.06315-.10143-.10761-.13965-.04447-.03821-.09583-.0663-.15091-.08252-.05507-.01622-.11269-.02023-.16927-.01178-.05659.00845-.11095.02918-.15971.0609-.2125.1198-.275.39933-.1625.62561l2.075 3.83353c-3.5625 2.07645-6.0125 5.92335-6.375 10.47565h25c-.35-4.539-2.7875-8.3858-6.3625-10.46234z" fill="#fff"/></svg>

<svg width="25" height="25" viewBox="0 0 25 25" fill="none" xmlns="http://www.w3.org/2000/svg">
<path d="M18.2625 16.2064C17.6875 16.2064 17.2125 15.7139 17.2125 15.1016C17.2125 14.4893 17.6875 14.0101 18.2625 14.0101C18.8375 14.0101 19.3125 14.4893 19.3125 15.1016C19.3125 15.7139 18.8375 16.2064 18.2625 16.2064ZM6.7625 16.2064C6.1875 16.2064 5.7125 15.7139 5.7125 15.1016C5.7125 14.4893 6.1875 14.0101 6.7625 14.0101C7.3375 14.0101 7.8 14.4893 7.8 15.1016C7.8 15.7139 7.3375 16.2064 6.7625 16.2064ZM18.6375 9.53766L20.725 5.70414C20.8375 5.47785 20.7625 5.19832 20.5625 5.07853C20.35 4.94542 20.0875 5.02528 20 5.25157L17.8625 9.12503C16.1802 8.30539 14.35 7.88742 12.5 7.90043C10.5875 7.90043 8.75 8.33969 7.1625 9.11172L5.05 5.23826C5.02348 5.18436 4.98685 5.13683 4.94239 5.09861C4.89792 5.0604 4.84656 5.03231 4.79148 5.01609C4.73641 4.99987 4.67879 4.99586 4.62221 5.00431C4.56562 5.01276 4.51126 5.03349 4.4625 5.06521C4.25 5.18501 4.1875 5.46454 4.3 5.69082L6.375 9.52435C2.8125 11.6008 0.3625 15.4477 0 20H25C24.65 15.461 22.2125 11.6142 18.6375 9.53766Z" fill="white"/>
</svg>
